src/img/svg/chery-logo.svg

<svg width="179" height="17" viewBox="0 0 179 17" fill="none" xmlns="http://www.w3.org/2000/svg">
<path fill-rule="evenodd" clip-rule="evenodd" d="M27.9717 0.0874427C32.8028 0.327464 37.1725 1.03522 40.6435 2.07531C45.6163 3.55851 48.7427 5.7187 48.7427 8.11891C48.7427 10.1499 46.4963 12.0085 42.7914 13.4363C41.2897 14.0148 39.5419 14.5195 37.6094 14.938C36.0339 15.2826 34.3353 15.5657 32.5382 15.775C29.9841 16.0765 27.2331 16.2427 24.3713 16.2427C21.5034 16.2427 18.7586 16.0765 16.2045 15.775C14.4074 15.5596 12.7088 15.2765 11.1333 14.938C9.2008 14.5195 7.45296 14.0148 5.95129 13.4363C2.24635 12.0146 0 10.1499 0 8.11891C0 5.7187 3.12642 3.55851 8.09916 2.07531C11.5702 1.03522 15.9398 0.327464 20.771 0.0874427C21.9034 0.0320533 23.0543 0.00128174 24.2298 0.00128174H24.5129C25.6884 0.00128174 26.8393 0.0320533 27.9717 0.0874427ZM6.62827 10.7838C7.77298 11.3007 9.10233 11.153 10.1178 10.4206L11.4533 9.4421L20.4695 2.91846C20.4695 2.91846 20.4879 2.89999 20.5249 2.87538L20.5864 2.8323C20.9618 2.57381 22.1065 1.79836 22.9497 1.45987C22.9528 1.45987 22.9543 1.46141 22.9558 1.46295C22.9574 1.46448 22.9589 1.46602 22.962 1.46602L22.9621 1.46599C23.0297 1.43523 23.0974 1.40447 23.1712 1.37986H23.1774C23.3928 1.29986 23.6144 1.24447 23.8421 1.20754C23.4974 1.20754 23.1528 1.21369 22.8143 1.21985C22.7735 1.21985 22.7343 1.22145 22.6959 1.22302C22.6589 1.22453 22.6228 1.226 22.5866 1.226C16.9492 1.3614 11.9395 2.15531 8.4315 3.33696C5.20045 4.42628 3.24336 5.8541 3.24336 7.41116C3.24336 8.65434 4.48654 9.81136 6.62827 10.7838ZM24.3713 13.6209C27.3993 13.6209 30.2857 13.4301 32.8952 13.0916C35.3077 12.6547 34.1014 11.0053 33.4921 10.3345C33.3878 10.2202 33.2995 10.134 33.2499 10.0856C33.2381 10.0741 33.2285 10.0647 33.2213 10.0575L33.209 10.0452L33.2029 10.0391L33.2028 10.039C32.7966 9.63284 32.3843 9.22052 31.9597 8.81435C30.5688 7.46655 29.1533 6.2049 27.7563 5.05403C27.3193 4.69092 26.8885 4.34627 26.4577 4.00778L26.4515 4.00163C26.4515 3.99783 26.4492 3.99637 26.4459 3.99436C26.4439 3.99312 26.4416 3.99167 26.4392 3.98932C26.4323 3.98586 26.4254 3.98047 26.4174 3.97422C26.4111 3.96934 26.4042 3.96394 26.3961 3.95855C26.39 3.95239 26.3838 3.94778 26.3777 3.94316C26.3715 3.93855 26.3654 3.93393 26.3592 3.92778L26.3592 3.92775C26.3469 3.91545 26.3346 3.90315 26.3161 3.89085C25.99 3.64467 25.1468 3.08463 24.3837 3.08463C23.6205 3.07847 22.7774 3.64467 22.445 3.89085C22.3773 3.94008 22.3281 3.97701 22.3096 3.99547L22.3035 4.00163H22.2973C21.8665 4.34012 21.4296 4.69092 20.9987 5.04787C19.6017 6.2049 18.1923 7.46039 16.7953 8.8082C16.3707 9.21439 15.9583 9.62058 15.5521 10.0329L15.546 10.0391C15.5432 10.0418 15.5382 10.0467 15.5313 10.0534C15.4917 10.0919 15.3876 10.1932 15.2567 10.3345L15.2382 10.353C14.6105 11.0484 13.4658 12.6608 15.8475 13.0916C18.4508 13.4301 21.3372 13.6209 24.3713 13.6209ZM38.6187 10.4206C39.6342 11.153 40.9697 11.3007 42.1083 10.7838C44.25 9.81136 45.4932 8.65434 45.4747 7.41116C45.4747 5.8541 43.5176 4.42628 40.2866 3.33696C36.7786 2.14916 31.7689 1.3614 26.1315 1.226C26.0515 1.21985 25.9776 1.21985 25.9038 1.21985L25.9036 1.21985C25.5652 1.21369 25.2268 1.20754 24.8822 1.20754C25.116 1.24447 25.3376 1.29986 25.5468 1.37986C25.5499 1.37986 25.553 1.3814 25.5561 1.38294C25.5591 1.38448 25.5622 1.38602 25.5653 1.38602C25.633 1.41063 25.7007 1.44141 25.7684 1.47218C25.7715 1.47218 25.773 1.47064 25.7745 1.4691C25.7761 1.46756 25.7776 1.46602 25.7807 1.46602C26.63 1.80451 27.7747 2.57997 28.144 2.83845L28.2055 2.88153L28.2301 2.89999C28.2486 2.91846 28.2609 2.92461 28.2609 2.92461L37.2771 9.44826L38.6187 10.4206ZM64.861 8.11891C64.861 5.96487 66.6088 4.21703 68.769 4.21703H73.4525H74.7572H81.2378L82.801 1.61988H74.7572H68.2459C67.8028 1.61988 67.3658 1.66296 66.9412 1.74912C65.3533 2.06915 63.9748 2.96769 63.0331 4.21703C62.2146 5.3002 61.7284 6.65416 61.7284 8.11891C61.7284 8.56202 61.7715 8.99898 61.8577 9.41748C62.0546 10.3776 62.4608 11.2638 63.027 12.0146C63.9686 13.264 65.341 14.1625 66.935 14.4825C67.3535 14.5687 67.7905 14.6118 68.2397 14.6118H74.7511H81.2316L82.7948 12.0146H74.7511H73.4463H68.7629C67.0643 12.0146 65.618 10.9315 65.0825 9.41748C64.941 9.01129 64.861 8.57433 64.861 8.11891ZM88.82 6.82034H103.634V1.61989H106.76V6.82034V9.41749V14.6179H103.634V9.41749H88.82V14.6179H85.6997V9.41749V6.82034V1.61989H88.82V6.82034ZM150.788 1.61989C152.949 1.61989 154.697 3.36773 154.697 5.52177C154.697 7.38654 153.386 8.9436 151.638 9.31902L154.697 14.6118H151.312L148.308 9.41133H136.763V14.6118H133.636V9.41133V6.81419H147.108H150.788C151.509 6.81419 152.093 6.22952 152.093 5.51561C152.093 4.8017 151.509 4.21704 150.788 4.21704H147.108H135.193L133.63 1.61989H150.788ZM166.876 7.31884L174.292 1.61989H178.711L168.562 9.41749V14.6179H165.024V9.41749L154.875 1.61989H159.454L166.876 7.31884ZM112.797 5.49102C112.816 4.78942 113.388 4.22322 114.096 4.22322H117.259H129.174L130.737 1.62607H113.579C111.425 1.62607 109.671 3.37392 109.671 5.52795V6.82037V9.41752V10.7161V14.618H113.678H129.174L130.737 12.0208H117.266H114.102H112.797V10.753V10.6853V9.41752H113.579H114.096H117.259H126.048L127.611 6.82037H117.259H114.096H112.797V5.55257V5.49102Z" fill="white"/>
</svg>

<svg xmlns="http://www.w3.org/2000/svg" width="179" height="17" fill="none"><path fill="#fff" fill-rule="evenodd" d="M27.972.087c4.83.24 9.2.948 12.672 1.988 4.972 1.484 8.099 3.644 8.099 6.044 0 2.03-2.247 3.89-5.952 5.317-1.501.579-3.25 1.084-5.182 1.502a51.916 51.916 0 0 1-5.07.837 70.022 70.022 0 0 1-8.168.468c-2.868 0-5.612-.166-8.166-.468a55.878 55.878 0 0 1-5.072-.837c-1.932-.418-3.68-.923-5.182-1.502C2.246 12.015 0 10.15 0 8.12c0-2.4 3.126-4.56 8.1-6.044C11.57 1.035 15.94.327 20.77.087A70.697 70.697 0 0 1 24.23.001h.283c1.175 0 2.326.031 3.459.086ZM6.628 10.784a3.502 3.502 0 0 0 3.49-.363l1.335-.979 9.017-6.524s.018-.018.055-.043l.061-.043c.376-.258 1.52-1.034 2.364-1.372.003 0 .004.001.006.003.001.001.003.003.006.003a2.12 2.12 0 0 1 .21-.086h.005c.216-.08.437-.136.665-.172a56.494 56.494 0 0 0-1.255.018c-5.638.135-10.647.93-14.155 2.111C5.2 4.427 3.242 5.854 3.242 7.411c0 1.243 1.244 2.4 3.385 3.373Zm17.743 2.837c3.028 0 5.915-.19 8.524-.53 2.413-.436 1.206-2.086.597-2.756a5.75 5.75 0 0 0-.27-.278l-.013-.012-.006-.006c-.406-.406-.819-.818-1.243-1.225a70.301 70.301 0 0 0-5.502-4.806l-.006-.006c0-.004-.003-.006-.006-.008a.036.036 0 0 1-.007-.005.14.14 0 0 1-.022-.015l-.02-.015c-.007-.007-.013-.011-.02-.016a.163.163 0 0 1-.018-.015.266.266 0 0 0-.043-.037c-.326-.246-1.17-.806-1.932-.806-.764-.007-1.607.56-1.939.806-.068.05-.117.086-.135.104l-.006.007h-.007c-.43.338-.867.689-1.298 1.046a74.575 74.575 0 0 0-4.204 3.76 58.75 58.75 0 0 0-1.243 1.225l-.006.006-.015.014c-.04.039-.143.14-.274.281l-.019.019c-.627.695-1.772 2.308.61 2.739 2.603.338 5.49.529 8.523.529Zm14.248-3.2a3.504 3.504 0 0 0 3.49.363c2.141-.973 3.384-2.13 3.366-3.373 0-1.557-1.957-2.985-5.188-4.074-3.508-1.188-8.518-1.976-14.155-2.111-.08-.006-.154-.006-.228-.006a55.789 55.789 0 0 0-1.022-.012 3.291 3.291 0 0 1 .683.178c.068.025.136.055.203.086.003 0 .005-.001.006-.003.002-.001.004-.003.007-.003.849.339 1.994 1.114 2.363 1.372l.062.044.024.018c.019.018.03.025.03.025l9.017 6.523 1.342.973ZM64.86 8.119a3.904 3.904 0 0 1 3.908-3.902h12.468l1.564-2.597H68.246a6.51 6.51 0 0 0-6.388 7.798 6.49 6.49 0 0 0 6.382 5.194H81.23l1.564-2.597H68.763a3.903 3.903 0 0 1-3.68-2.598 3.942 3.942 0 0 1-.222-1.298ZM88.82 6.82h14.814v-5.2h3.126v12.997h-3.126v-5.2H88.82v5.2H85.7V1.62h3.12v5.2Zm61.968-5.2a3.905 3.905 0 0 1 3.909 3.902 3.883 3.883 0 0 1-3.059 3.797l3.059 5.293h-3.385l-3.004-5.2h-11.545v5.2h-3.127V6.814h17.152c.721 0 1.305-.584 1.305-1.298 0-.714-.584-1.299-1.305-1.299H135.193L133.63 1.62h17.158Zm16.088 5.699 7.416-5.7h4.419l-10.149 7.798v5.2h-3.538v-5.2L154.875 1.62h4.579l7.422 5.699ZM112.797 5.49a1.301 1.301 0 0 1 1.299-1.268h15.078l1.563-2.597h-17.158a3.908 3.908 0 0 0-3.908 3.902v9.09h19.503l1.563-2.597h-17.94V9.418h13.251l1.563-2.598h-14.814V5.491Z"/></svg>
